images/ic_discover.svg

<svg width="16" height="20" viewBox="0 0 16 20" fill="none" xmlns="http://www.w3.org/2000/svg">
<path d="M15.0017 7.56684C14.6914 6.89129 14.0335 6.47164 13.2848 6.47164H10.6203L13.7767 1.1791C13.9204 0.938164 13.9236 0.638594 13.785 0.394688C13.6464 0.150703 13.3875 0 13.107 0H5.6997C5.40599 0 5.13712 0.165078 5.00431 0.42707L1.12364 8.07914C0.689386 8.9318 0.728683 9.92793 1.22872 10.7438C1.72884 11.5596 2.5986 12.0466 3.55548 12.0466H6.28458L3.57071 17.6146C3.20794 18.3511 3.41962 19.2007 4.0854 19.6809C4.38196 19.8948 4.71954 20 5.0545 20C5.47153 20 5.88446 19.8368 6.20849 19.517C6.22263 19.503 6.2363 19.4885 6.24931 19.4735L12.2921 12.519C12.5745 12.1939 12.54 11.7015 12.2149 11.419C11.8898 11.1365 11.3973 11.1711 11.1149 11.4962L5.09634 18.4229C5.07298 18.4427 5.04712 18.4518 4.99759 18.4161C4.93614 18.3718 4.95165 18.3403 4.97107 18.3009L8.23294 11.6085C8.35067 11.3668 8.33567 11.0815 8.19321 10.8536C8.05071 10.6256 7.80087 10.4871 7.532 10.4871H3.55544C3.13923 10.4871 2.77579 10.2836 2.55829 9.92875C2.34079 9.57391 2.32435 9.15766 2.5138 8.78559L6.17845 1.55941H11.734L8.57771 6.85199C8.43396 7.09293 8.43079 7.3925 8.56935 7.63641C8.7079 7.88031 8.96681 8.03105 9.24736 8.03105H13.2847C13.471 8.03105 13.5525 8.14801 13.5846 8.21773C13.6174 8.28906 13.6538 8.43051 13.5292 8.57562C13.2486 8.90234 13.2859 9.39461 13.6126 9.6752C13.9394 9.95574 14.4317 9.91844 14.7122 9.59172C15.2023 9.02098 15.3132 8.24508 15.0017 7.56684Z" fill="#929292"/>
</svg>

<svg xmlns="http://www.w3.org/2000/svg" fill="none" viewBox="0 0 16 20"><path d="M15.002 7.567c-.3-.676-.968-1.095-1.717-1.095H10.62l3.156-5.292A.78.78 0 0 0 13.107 0H5.7a.78.78 0 0 0-.695.427L1.124 8.08a2.71 2.71 0 0 0 .105 2.665 2.71 2.71 0 0 0 2.327 1.303h2.73L3.57 17.615c-.363.736-.15 1.586.515 2.066.297.214.634.32.97.32.417 0 .83-.163 1.154-.483l.04-.044 6.043-6.954a.78.78 0 0 0-.077-1.1.78.78 0 0 0-1.1.077l-6.02 6.927c-.023.02-.05.03-.1-.007-.06-.044-.046-.076-.027-.115l3.262-6.692a.78.78 0 0 0-.701-1.121H3.556c-.416 0-.78-.203-.997-.558s-.234-.77-.044-1.143L6.18 1.56h5.556L8.578 6.852a.78.78 0 0 0 .67 1.179h4.037c.186 0 .268.117.3.187a.32.32 0 0 1-.055.358.78.78 0 0 0 .083 1.1.78.78 0 0 0 1.1-.083c.5-.57.6-1.347.29-2.025z" fill="#929292"/></svg>
